X:1
T:Title
%%score { 1 | 2 }
L:1/8
M:6/4
K:Bb
V:1 treble nm="Grand Piano"
V:2 bass 
V:1
 z6[Q:1/4=122] [DF]2 | [DB]4 [DA][DB] A4 DD | G2 G2 G2 [DF]4 [DF]2 | %3
 [DFB]4 [CFA][DFB] [EFc]4 [EF][EF] | [DFd]6- [DFd]4 [A,EF][A,EF] | [B,DB]4 [DA][DB] A4 DD | %6
 G2 G2 G2 [B,DF]4 [DFB][DFB] | [CDF]4 [Fc][Fc] [DEB]4 [CEA][B,EG] | F6- F4 F2 | G4 AB A4 EE | %10
 [EG]4 [DF][CE] [DF]4 [DF]2 | [EG]4 [EG][FG] [EG]4 AB | c6- c4 FF | [DB]4 [DA][DB] A4 DD | %14
 G2 G2 G2 [DF]4 [DF][DF] | [EG]2 [FA]2 [FB]2 F2 F2 E2 |[M:5/4] D2- D2- D6 |] %17
V:2
 z6 [B,,B,]2 | [B,,F,]4 [D,F,][B,,F,] [D,F,D]4 [B,,B,][B,,B,] | %2
 [E,B,E]2 [E,B,E]2 [E,B,E]2 [B,,B,]4 [B,,B,]2 | B,,4 C,B,, A,,4 A,,A,, | B,,6- B,,4 F,F, | %5
 B,,4 [D,F,][B,,F,] [D,F,D]4 [B,,B,][B,,B,] | [E,B,E]2 [E,B,E]2 [E,B,E]2 B,,4 B,,B,, | %7
 C,4 [C,A,][C,A,] C,4 C,C, | [F,A,]6- [F,A,]4 [F,B,D]2 | %9
 [F,B,E]4 [F,CE][F,G,E] [F,A,E]4 [F,A,C][F,A,C] | [B,,B,]4 [B,,B,][B,,G,] [B,,B,]4 [B,,B,]2 | %11
 [E,B,]4 [E,B,][D,=B,] [C,C]4 [F,CF][F,G,E] | [F,A,E]6- [F,A,E]4 [F,A,E][F,A,E] | %13
 [B,,B,]4 [D,F,][B,,F,] [D,F,D]4 [B,,B,][B,,B,] | [E,B,E]2 [E,B,E]2 [E,B,E]2 [B,,B,]4 [B,,B,]2 | %15
 [E,B,]2 [E,C]2 [D,B,]2 [F,B,D]2 [F,A,D]2 [F,A,C]2 |[M:5/4] [B,,B,]2- [B,,B,]2- [B,,B,]6 |] %17

